images/diversity01.svg

<svg fill="none" height="54" viewBox="0 0 54 54" width="54" xmlns="http://www.w3.org/2000/svg"><path d="m48.7266 21.7266c-1.599 0-3.0331.7163-4.001 1.8439-1.3169-2.9476-4.2745-5.008-7.7061-5.008h-.5871c-.3121-.3491-.6444-.6812-.995-.9951v-.5869c0-3.4315-2.0604-6.3891-5.008-7.70614 1.1276-.96789 1.8439-2.40183 1.8439-4.00094 0-2.90777-2.3656-5.27342-5.2734-5.27342s-5.2734 2.36565-5.2734 5.27342c0 1.599.7163 3.03305 1.8439 4.00094-2.9476 1.31694-5.008 4.27454-5.008 7.70614v.587c-.3507.3139-.6828.646-.9949.9951h-.5872c-3.4316 0-6.3892 2.0604-7.70615 5.008-.96768-1.1277-2.40162-1.844-4.00073-1.844-2.90777 0-5.27342 2.3656-5.27342 5.2734s2.36565 5.2734 5.27342 5.2734c1.599 0 3.03305-.7163 4.00094-1.8439 1.31694 2.9476 4.27454 5.008 7.70614 5.008h.5948c.3109.3467.6405.6763.9872.9872v.5948c0 3.4316 2.0604 6.3892 5.008 7.7061-1.1276.9679-1.8439 2.402-1.8439 4.001 0 2.9077 2.3656 5.2734 5.2734 5.2734s5.2734-2.3657 5.2734-5.2734c0-1.599-.7163-3.0331-1.8439-4.001 2.9475-1.3169 5.0079-4.2745 5.0079-7.7061v-.5947c.3468-.3109.6764-.6404.9873-.9873h.5948c3.4315 0 6.3891-2.0604 7.7061-5.008.9679 1.1276 2.402 1.8439 4.001 1.8439 2.9077 0 5.2734-2.3656 5.2734-5.2734s-2.3655-5.2734-5.2734-5.2734zm-21.7265-19.61723c1.7447 0 3.1641 1.41939 3.1641 3.16405 0 1.74465-1.4194 3.16405-3.1641 3.16405s-3.164-1.4194-3.164-3.16405c0-1.74466 1.4193-3.16405 3.164-3.16405zm0 8.54303c3.1539 0 5.7759 2.3195 6.2508 5.3421-.3807-.2163-.7744-.4152-1.1815-.5934-.5337-.2336-1.1556.0098-1.389.5434-.2335.5337.0097 1.1555.5434 1.389 3.8412 1.681 6.3231 5.4753 6.3231 9.6664 0 5.8155-4.7313 10.5468-10.5468 10.5468-5.8156 0-10.5468-4.7313-10.5468-10.5468 0-4.1908 2.4817-7.9849 6.3225-9.6662.5337-.2335.7769-.8554.5432-1.389-.2335-.5337-.8555-.7769-1.389-.5433-.4068.1781-.8002.3769-1.1806.5931.4747-3.0225 3.0967-5.3421 6.2507-5.3421zm-21.72668 19.5117c-1.74466 0-3.16405-1.4194-3.16405-3.1641s1.41939-3.164 3.16405-3.164c1.74465 0 3.16405 1.4193 3.16405 3.164s-1.4194 3.1641-3.16405 3.1641zm5.37898-3.1641c0-3.1549 2.3208-5.7775 5.3447-6.2513-1.0617 1.8685-1.6533 4.0123-1.6533 6.2513 0 2.2722.6023 4.4063 1.6551 6.2516-3.0247-.4731-5.3465-3.0961-5.3465-6.2516zm16.3477 24.8906c-1.7447 0-3.164-1.4194-3.164-3.164 0-1.7447 1.4193-3.1641 3.164-3.1641s3.1641 1.4194 3.1641 3.1641c0 1.7446-1.4194 3.164-3.1641 3.164zm0-8.543c-3.1554 0-5.7785-2.3217-6.2516-5.3465 1.8452 1.0528 3.9793 1.6551 6.2516 1.6551 2.2722 0 4.4063-.6023 6.2515-1.655-.4731 3.0247-3.0961 5.3464-6.2515 5.3464zm11.0011-10.096c1.0528-1.8452 1.6551-3.9793 1.6551-6.2516 0-2.239-.5916-4.3828-1.6532-6.2513 3.0239.4738 5.3446 3.0964 5.3446 6.2513-.0001 3.1555-2.3218 5.7785-5.3465 6.2516zm10.7254-3.0875c-1.7447 0-3.1641-1.4194-3.1641-3.1641s1.4194-3.164 3.1641-3.164c1.7446 0 3.164 1.4193 3.164 3.164s-1.4194 3.1641-3.164 3.1641z" fill="#f1f2f7"/><path d="m20.6721 27.0001c0 3.4894 2.8388 6.3281 6.3281 6.3281 3.4894 0 6.3282-2.8387 6.3282-6.3281 0-3.4893-2.8388-6.3281-6.3282-6.3281-3.4893 0-6.3281 2.8388-6.3281 6.3281zm10.5469 0c0 2.3262-1.8925 4.2188-4.2188 4.2188-2.3262 0-4.2187-1.8926-4.2187-4.2188s1.8925-4.2187 4.2187-4.2187c2.3263 0 4.2188 1.8925 4.2188 4.2187z" fill="#f7cc59"/><path d="m27.0002 16.4532c.5825 0 1.0547-.4721 1.0547-1.0546s-.4722-1.0547-1.0547-1.0547h-.0009c-.5825 0-1.0542.4722-1.0542 1.0547s.4726 1.0546 1.0551 1.0546z" fill="#f1f2f7"/></svg>

<svg width="54" height="54" viewBox="0 0 54 54" fill="none" xmlns="http://www.w3.org/2000/svg">
<path d="M48.7266 21.7266C47.1276 21.7266 45.6935 22.4429 44.7256 23.5705C43.4087 20.6229 40.4511 18.5625 37.0195 18.5625H36.4324C36.1203 18.2134 35.788 17.8813 35.4374 17.5674V16.9805C35.4374 13.549 33.377 10.5914 30.4294 9.27436C31.557 8.30647 32.2733 6.87253 32.2733 5.27342C32.2733 2.36565 29.9077 0 26.9999 0C24.0921 0 21.7265 2.36565 21.7265 5.27342C21.7265 6.87242 22.4428 8.30647 23.5704 9.27436C20.6228 10.5913 18.5624 13.5489 18.5624 16.9805V17.5675C18.2117 17.8814 17.8796 18.2135 17.5675 18.5626H16.9803C13.5487 18.5626 10.5911 20.623 9.27415 23.5706C8.30647 22.4429 6.87253 21.7266 5.27342 21.7266C2.36565 21.7266 0 24.0922 0 27C0 29.9078 2.36565 32.2734 5.27342 32.2734C6.87242 32.2734 8.30647 31.5571 9.27436 30.4295C10.5913 33.3771 13.5489 35.4375 16.9805 35.4375H17.5753C17.8862 35.7842 18.2158 36.1138 18.5625 36.4247V37.0195C18.5625 40.4511 20.6229 43.4087 23.5705 44.7256C22.4429 45.6935 21.7266 47.1276 21.7266 48.7266C21.7266 51.6343 24.0922 54 27 54C29.9078 54 32.2734 51.6343 32.2734 48.7266C32.2734 47.1276 31.5571 45.6935 30.4295 44.7256C33.377 43.4087 35.4374 40.4511 35.4374 37.0195V36.4248C35.7842 36.1139 36.1138 35.7844 36.4247 35.4375H37.0195C40.451 35.4375 43.4086 33.3771 44.7256 30.4295C45.6935 31.5571 47.1276 32.2734 48.7266 32.2734C51.6343 32.2734 54 29.9078 54 27C54 24.0922 51.6345 21.7266 48.7266 21.7266ZM27.0001 2.10937C28.7448 2.10937 30.1642 3.52876 30.1642 5.27342C30.1642 7.01807 28.7448 8.43747 27.0001 8.43747C25.2554 8.43747 23.8361 7.01807 23.8361 5.27342C23.8361 3.52876 25.2554 2.10937 27.0001 2.10937ZM27.0001 10.6524C30.154 10.6524 32.776 12.9719 33.2509 15.9945C32.8702 15.7782 32.4765 15.5793 32.0694 15.4011C31.5357 15.1675 30.9138 15.4109 30.6804 15.9445C30.4469 16.4782 30.6901 17.1 31.2238 17.3335C35.065 19.0145 37.5469 22.8088 37.5469 26.9999C37.5469 32.8154 32.8156 37.5467 27.0001 37.5467C21.1845 37.5467 16.4533 32.8154 16.4533 26.9999C16.4533 22.8091 18.935 19.015 22.7758 17.3337C23.3095 17.1002 23.5527 16.4783 23.319 15.9447C23.0855 15.411 22.4635 15.1678 21.93 15.4014C21.5232 15.5795 21.1298 15.7783 20.7494 15.9945C21.2241 12.972 23.8461 10.6524 27.0001 10.6524ZM5.27342 30.1641C3.52876 30.1641 2.10937 28.7447 2.10937 27C2.10937 25.2553 3.52876 23.836 5.27342 23.836C7.01807 23.836 8.43747 25.2553 8.43747 27C8.43747 28.7447 7.01807 30.1641 5.27342 30.1641ZM10.6524 27C10.6524 23.8451 12.9732 21.2225 15.9971 20.7487C14.9354 22.6172 14.3438 24.761 14.3438 27C14.3438 29.2722 14.9461 31.4063 15.9989 33.2516C12.9742 32.7785 10.6524 30.1555 10.6524 27ZM27.0001 51.8906C25.2554 51.8906 23.8361 50.4712 23.8361 48.7266C23.8361 46.9819 25.2554 45.5625 27.0001 45.5625C28.7448 45.5625 30.1642 46.9819 30.1642 48.7266C30.1642 50.4712 28.7448 51.8906 27.0001 51.8906ZM27.0001 43.3476C23.8447 43.3476 21.2216 41.0259 20.7485 38.0011C22.5937 39.0539 24.7278 39.6562 27.0001 39.6562C29.2723 39.6562 31.4064 39.0539 33.2516 38.0012C32.7785 41.0259 30.1555 43.3476 27.0001 43.3476ZM38.0012 33.2516C39.054 31.4064 39.6563 29.2723 39.6563 27C39.6563 24.761 39.0647 22.6172 38.0031 20.7487C41.027 21.2225 43.3477 23.8451 43.3477 27C43.3476 30.1555 41.0259 32.7785 38.0012 33.2516ZM48.7266 30.1641C46.9819 30.1641 45.5625 28.7447 45.5625 27C45.5625 25.2553 46.9819 23.836 48.7266 23.836C50.4712 23.836 51.8906 25.2553 51.8906 27C51.8906 28.7447 50.4712 30.1641 48.7266 30.1641Z" fill="#F1F2F7"/>
<path d="M20.6721 27.0001C20.6721 30.4895 23.5109 33.3282 27.0002 33.3282C30.4896 33.3282 33.3284 30.4895 33.3284 27.0001C33.3284 23.5108 30.4896 20.672 27.0002 20.672C23.5109 20.672 20.6721 23.5108 20.6721 27.0001ZM31.219 27.0001C31.219 29.3263 29.3265 31.2189 27.0002 31.2189C24.674 31.2189 22.7815 29.3263 22.7815 27.0001C22.7815 24.6739 24.674 22.7814 27.0002 22.7814C29.3265 22.7814 31.219 24.6739 31.219 27.0001Z" fill="#F7CC59"/>
<path d="M27.0002 16.4532C27.5827 16.4532 28.0549 15.9811 28.0549 15.3986C28.0549 14.8161 27.5827 14.3439 27.0002 14.3439H26.9993C26.4168 14.3439 25.9451 14.8161 25.9451 15.3986C25.9451 15.9811 26.4177 16.4532 27.0002 16.4532Z" fill="#F1F2F7"/>
</svg>
